images/icons/vimeo.svg

<svg fill="none" height="24" viewBox="0 0 24 24" width="24" xmlns="http://www.w3.org/2000/svg"><path d="m23.9884 6.35832c-.1068 2.36325-1.7386 5.59928-4.8946 9.70638-3.2631 4.2904-6.0238 6.4353-8.2822 6.4353-1.39849 0-2.5829-1.306-3.54963-3.9191-.64608-2.3952-1.29145-4.7902-1.93729-7.1854-.71833-2.61166-1.4885-3.91916-2.31194-3.91916-.17952 0-.80784.38212-1.88354 1.14346l-1.1292-1.47155c1.18441-1.05283 2.35298-2.10542 3.50258-3.15947 1.57969-1.38092 2.76554-2.10712 3.55587-2.18054 1.86793-.18149 3.01755 1.11002 3.44905 3.87477.4663 2.98283.7889 4.83819.9704 5.56439.5382 2.4747 1.1306 3.7105 1.7778 3.7105.5024 0 1.2569-.8025 2.2631-2.4076 1.0051-1.6055 1.5434-2.82703 1.6162-3.66614.1429-1.38553-.3956-2.07999-1.6162-2.07999-.5746 0-1.1669.13376-1.7763.39812 1.1794-3.90821 3.433-5.80622 6.7594-5.6979 2.466.07317 3.6286 1.69107 3.4865 4.85393z" fill="#fff"/></svg>

<svg width="24" height="24" viewBox="0 0 24 24" fill="none" xmlns="http://www.w3.org/2000/svg">
<path d="M23.9884 6.35832C23.8816 8.72157 22.2498 11.9576 19.0938 16.0647C15.8307 20.3551 13.07 22.5 10.8116 22.5C9.41311 22.5 8.2287 21.194 7.26197 18.5809C6.61589 16.1857 5.97052 13.7907 5.32468 11.3955C4.60635 8.78384 3.83618 7.47634 3.01274 7.47634C2.83322 7.47634 2.2049 7.85846 1.1292 8.6198L0 7.14825C1.18441 6.09542 2.35298 5.04283 3.50258 3.98878C5.08227 2.60786 6.26812 1.88166 7.05845 1.80824C8.92638 1.62675 10.076 2.91826 10.5075 5.68301C10.9738 8.66584 11.2964 10.5212 11.4779 11.2474C12.0161 13.7221 12.6085 14.9579 13.2557 14.9579C13.7581 14.9579 14.5126 14.1554 15.5188 12.5503C16.5239 10.9448 17.0622 9.72327 17.135 8.88416C17.2779 7.49863 16.7394 6.80417 15.5188 6.80417C14.9442 6.80417 14.3519 6.93793 13.7425 7.20229C14.9219 3.29408 17.1755 1.39607 20.5019 1.50439C22.9679 1.57756 24.1305 3.19546 23.9884 6.35832Z" fill="white"/>
</svg>
